X: 49
T: YANKY DOODLE
B: "Old English Country Dances", Frank Kidson ed., William Reeves pub., London 1890
Z: 2010-9-26 John Chambers <jc:trillian.mit.edu>
M: 2/4
L: 1/8
K: D
|: ddef | ddec | ddef | d2c2 | ddef | ddec  | AABc  | d2d2 :|
|: d2BG | BGB2 |=c2AG | FGA2 | d2BG | BG^c2 | AB^cA | d2d2 :|


%%sep 1 1 500

%%sep 1 1 500

